X: 1
T:Re-union -- Reel
M:2/4
L:1/16
R:reel
B:Ryan's Mammoth Collection
N:288
Z:Contributed by Ray Davies,  ray:davies99.freeserve.co.uk
K:C
uE2|\
GccG "4".A2(GE) | C"4"eec (Bd).g2 | "4"eccG "4".A2(GE) | \
Cccd "4"(ec).c2 |
GccG "4".A2(GE) | C"4"eec (Bd).g2 | "4"eccG "4".A2GE | \
Cccd "4"(ec).c2 :|
|:vgcac g2"0"(eg) | gc"4"ec Bdd"4"e | gcac g2"4"(ec) | \
GAcd "4"(ec)c2 |
gcac g2"0"(eg) | gc"4"ec Bddg | "4"eccG "4"A2(GE) | \
Cccd "4"(ec)c2 :|
